client/public/assets/icons/utility/questions_and_answers.svg

<?xml version="1.0"?><svg xmlns="http://www.w3.org/2000/svg" width="52" height="52" viewBox="0 0 52 52"><path fill="#fff" d="m50 28c0-3.9-2.5-7.3-6-8.5-0.3-9.7-8.2-17.5-18-17.5s-17.7 7.8-18 17.5c-3.5 1.2-6 4.6-6 8.5 0 4.2 2.9 7.7 6.7 8.7 2.2 7.7 9.1 13.3 17.3 13.3s15.1-5.6 17.3-13.3c3.8-1 6.7-4.5 6.7-8.7z m-10-9l-0.1-0.1 0.4 0.1h-0.3z m-14 27c-7.7 0-14-6.5-14-14.4 0-2 0.4-5 1.2-6.8 0.1-0.3 0.3-0.6 0.4-0.9 3-1.2 5.6-3.3 7.3-6 3.5 4.4 9 7.4 15.1 7.4 2.1 0 2.7 0.1 2.9 0 0.4 1.3 0.8 2.9 0.9 4.5-0.6 2.5-4.5 4.9-10 5.2-0.2-0.5-0.8-1-1.4-1h-5c-0.8 0-1.4 0.8-1.4 1.6v3c0 0.8 0.6 1.4 1.4 1.4h5c0.7 0 1.2-0.3 1.4-0.9 3.6-0.1 6.8-1.1 9.3-2.6-1.9 5.5-7 9.5-13.1 9.5z"></path></svg>

<?xml version="1.0" encoding="utf-8"?>
<!-- Generator: Adobe Illustrator 18.1.1, SVG Export Plug-In . SVG Version: 6.00 Build 0)  -->
<svg version="1.1" id="Layer_1" xmlns="http://www.w3.org/2000/svg" xmlns:xlink="http://www.w3.org/1999/xlink" x="0px" y="0px"
	 width="52px" height="52px" viewBox="0 0 52 52" enable-background="new 0 0 52 52" xml:space="preserve">
<path fill="#FFFFFF" d="M50,28c0-3.9-2.5-7.3-6-8.5C43.7,9.8,35.8,2,26,2S8.3,9.8,8,19.5c-3.5,1.2-6,4.6-6,8.5
	c0,4.2,2.9,7.7,6.7,8.7C10.9,44.4,17.8,50,26,50s15.1-5.6,17.3-13.3C47.1,35.7,50,32.2,50,28z M40,19l-0.1-0.1l0.4,0.1H40z M26,46
	c-7.7,0-14-6.5-14-14.4c0-2,0.4-5,1.2-6.8c0.1-0.3,0.3-0.6,0.4-0.9c3-1.2,5.6-3.3,7.3-6c3.5,4.4,9,7.4,15.1,7.4c2.1,0,2.7,0.1,2.9,0
	c0.4,1.3,0.8,2.9,0.9,4.5c-0.6,2.5-4.5,4.9-10,5.2C29.6,34.5,29,34,28.4,34h-5c-0.8,0-1.4,0.8-1.4,1.6v3c0,0.8,0.6,1.4,1.4,1.4h5
	c0.7,0,1.2-0.3,1.4-0.9c3.6-0.1,6.8-1.1,9.3-2.6C37.2,42,32.1,46,26,46z"/>
</svg>
